images/twitter.svg

<svg height="17" viewBox="0 0 20 17" width="20" xmlns="http://www.w3.org/2000/svg"><path d="m20 2.13083333c-.7358333.32666667-1.5266667.54666667-2.3566667.64583334.8475-.5075 1.4983334-1.31166667 1.8041667-2.27-.7925.47-1.6708333.81166666-2.6058333.99583333-.7475-.7975-1.815-1.29583333-2.995-1.29583333-2.6491667 0-4.59583337 2.47166666-3.99750003 5.0375-3.40916667-.17083334-6.4325-1.80416667-8.45666667-4.28666667-1.075 1.84416667-.5575 4.25666667 1.26916667 5.47833333-.67166667-.02166666-1.305-.20583333-1.8575-.51333333-.045 1.90083333 1.3175 3.67916667 3.29083333 4.075-.5775.1566667-1.21.1933333-1.85333333.07.52166666 1.63 2.03666666 2.8158333 3.83333333 2.8491667-1.725 1.3525-3.89833333 1.9566666-6.075 1.7 1.81583333 1.1641666 3.97333333 1.8433333 6.29 1.8433333 7.6183333 0 11.9225-6.4341667 11.6625-12.205.8016667-.57916667 1.4975-1.30166667 2.0475-2.12416667z" fill="#999"/></svg>

<?xml version="1.0" encoding="UTF-8"?>
<svg width="20px" height="17px" viewBox="0 0 20 17" version="1.1" xmlns="http://www.w3.org/2000/svg" xmlns:xlink="http://www.w3.org/1999/xlink">
    <!-- Generator: Sketch 47.1 (45422) - http://www.bohemiancoding.com/sketch -->
    <title>twitter</title>
    <desc>Created with Sketch.</desc>
    <defs></defs>
    <g id="Page-1" stroke="none" stroke-width="1" fill="none" fill-rule="evenodd">
        <g id="Home-page" transform="translate(-320.000000, -1273.000000)" fill-rule="nonzero" fill="#999999">
            <g id="Group-10" transform="translate(250.000000, 1230.000000)">
                <g id="twitter" transform="translate(70.000000, 43.000000)">
                    <path d="M20,2.13083333 C19.2641667,2.4575 18.4733333,2.6775 17.6433333,2.77666667 C18.4908333,2.26916667 19.1416667,1.465 19.4475,0.506666667 C18.655,0.976666667 17.7766667,1.31833333 16.8416667,1.5025 C16.0941667,0.705 15.0266667,0.206666667 13.8466667,0.206666667 C11.1975,0.206666667 9.25083333,2.67833333 9.84916667,5.24416667 C6.44,5.07333333 3.41666667,3.44 1.3925,0.9575 C0.3175,2.80166667 0.835,5.21416667 2.66166667,6.43583333 C1.99,6.41416667 1.35666667,6.23 0.804166667,5.9225 C0.759166667,7.82333333 2.12166667,9.60166667 4.095,9.9975 C3.5175,10.1541667 2.885,10.1908333 2.24166667,10.0675 C2.76333333,11.6975 4.27833333,12.8833333 6.075,12.9166667 C4.35,14.2691667 2.17666667,14.8733333 -1.77635684e-15,14.6166667 C1.81583333,15.7808333 3.97333333,16.46 6.29,16.46 C13.9083333,16.46 18.2125,10.0258333 17.9525,4.255 C18.7541667,3.67583333 19.45,2.95333333 20,2.13083333 Z" id="Shape"></path>
                </g>
            </g>
        </g>
    </g>
</svg>
